src/assets/img/js.svg

<?xml version="1.0" encoding="iso-8859-1"?>
<!-- Generator: Adobe Illustrator 18.0.0, SVG Export Plug-In . SVG Version: 6.00 Build 0)  -->
<!DOCTYPE svg PUBLIC "-//W3C//DTD SVG 1.1//EN" "http://www.w3.org/Graphics/SVG/1.1/DTD/svg11.dtd">
<svg version="1.1" id="Capa_1" xmlns="http://www.w3.org/2000/svg" xmlns:xlink="http://www.w3.org/1999/xlink" x="0px" y="0px"
	 viewBox="0 0 58 58" style="enable-background:new 0 0 58 58;" xml:space="preserve">
<g>
	<path d="M6.5,41v15c0,1.009,1.22,2,2.463,2h40.074c1.243,0,2.463-0.991,2.463-2V41H6.5z M27.021,51.566
		c0,0.474-0.087,0.873-0.26,1.196c-0.174,0.323-0.406,0.583-0.697,0.779c-0.292,0.196-0.627,0.333-1.005,0.41
		s-0.769,0.116-1.169,0.116c-0.201,0-0.436-0.021-0.704-0.062s-0.547-0.104-0.834-0.191s-0.563-0.185-0.827-0.294
		c-0.265-0.109-0.488-0.232-0.67-0.369l0.697-1.107c0.091,0.063,0.221,0.13,0.39,0.198s0.353,0.132,0.554,0.191
		c0.2,0.06,0.41,0.111,0.629,0.157s0.424,0.068,0.615,0.068c0.482,0,0.868-0.094,1.155-0.28s0.439-0.504,0.458-0.95v-7.711h1.668
		V51.566z M34.958,52.298c-0.15,0.342-0.362,0.643-0.636,0.902s-0.611,0.467-1.012,0.622c-0.401,0.155-0.857,0.232-1.367,0.232
		c-0.219,0-0.444-0.012-0.677-0.034s-0.468-0.062-0.704-0.116c-0.237-0.055-0.463-0.13-0.677-0.226s-0.399-0.212-0.554-0.349
		l0.287-1.176c0.127,0.073,0.289,0.144,0.485,0.212s0.398,0.132,0.608,0.191c0.209,0.06,0.419,0.107,0.629,0.144
		c0.209,0.036,0.405,0.055,0.588,0.055c0.556,0,0.982-0.13,1.278-0.39s0.444-0.645,0.444-1.155c0-0.31-0.105-0.574-0.314-0.793
		c-0.21-0.219-0.472-0.417-0.786-0.595s-0.654-0.355-1.019-0.533c-0.365-0.178-0.707-0.388-1.025-0.629
		c-0.319-0.241-0.584-0.526-0.793-0.854c-0.21-0.328-0.314-0.738-0.314-1.23c0-0.446,0.082-0.843,0.246-1.189
		s0.385-0.641,0.663-0.882s0.602-0.426,0.971-0.554s0.759-0.191,1.169-0.191c0.419,0,0.843,0.039,1.271,0.116
		c0.428,0.077,0.774,0.203,1.039,0.376c-0.055,0.118-0.119,0.248-0.191,0.39c-0.073,0.142-0.142,0.273-0.205,0.396
		c-0.064,0.123-0.119,0.226-0.164,0.308c-0.046,0.082-0.073,0.128-0.082,0.137c-0.055-0.027-0.116-0.063-0.185-0.109
		s-0.167-0.091-0.294-0.137c-0.128-0.046-0.297-0.077-0.506-0.096c-0.21-0.019-0.479-0.014-0.807,0.014
		c-0.183,0.019-0.355,0.07-0.52,0.157s-0.311,0.193-0.438,0.321c-0.128,0.128-0.229,0.271-0.301,0.431
		c-0.073,0.159-0.109,0.313-0.109,0.458c0,0.364,0.104,0.658,0.314,0.882c0.209,0.224,0.469,0.419,0.779,0.588
		c0.31,0.169,0.646,0.333,1.012,0.492c0.364,0.159,0.704,0.354,1.019,0.581s0.576,0.513,0.786,0.854
		c0.209,0.342,0.314,0.781,0.314,1.319C35.184,51.603,35.108,51.956,34.958,52.298z"/>
	<path d="M51.5,39V13.978c0-0.766-0.092-1.333-0.55-1.792L39.313,0.55C38.964,0.201,38.48,0,37.985,0H8.963
		C7.777,0,6.5,0.916,6.5,2.926V39H51.5z M29.5,32c0,0.552-0.447,1-1,1s-1-0.448-1-1v-3c0-0.552,0.447-1,1-1s1,0.448,1,1V32z
		 M37.5,3.391c0-0.458,0.553-0.687,0.877-0.363l10.095,10.095C48.796,13.447,48.567,14,48.109,14H37.5V3.391z M36.5,23v-4
		c0-0.551-0.448-1-1-1c-0.553,0-1-0.448-1-1s0.447-1,1-1c1.654,0,3,1.346,3,3v4c0,1.103,0.897,2,2,2c0.553,0,1,0.448,1,1
		s-0.447,1-1,1c-1.103,0-2,0.897-2,2v4c0,1.654-1.346,3-3,3c-0.553,0-1-0.448-1-1s0.447-1,1-1c0.552,0,1-0.449,1-1v-4
		c0-1.2,0.542-2.266,1.382-3C37.042,25.266,36.5,24.2,36.5,23z M28.5,21c0.828,0,1.5,0.672,1.5,1.5S29.328,24,28.5,24
		S27,23.328,27,22.5S27.672,21,28.5,21z M16.5,25c1.103,0,2-0.897,2-2v-4c0-1.654,1.346-3,3-3c0.553,0,1,0.448,1,1s-0.447,1-1,1
		c-0.552,0-1,0.449-1,1v4c0,1.2-0.542,2.266-1.382,3c0.84,0.734,1.382,1.8,1.382,3v4c0,0.551,0.448,1,1,1c0.553,0,1,0.448,1,1
		s-0.447,1-1,1c-1.654,0-3-1.346-3-3v-4c0-1.103-0.897-2-2-2c-0.553,0-1-0.448-1-1S15.947,25,16.5,25z"/>
</g>
<g>
</g>
<g>
</g>
<g>
</g>
<g>
</g>
<g>
</g>
<g>
</g>
<g>
</g>
<g>
</g>
<g>
</g>
<g>
</g>
<g>
</g>
<g>
</g>
<g>
</g>
<g>
</g>
<g>
</g>
</svg>

<svg width="58" height="58" viewBox="0 0 58 58" fill="none" xmlns="http://www.w3.org/2000/svg">
<path d="M6.5 41V56C6.5 57.009 7.72 58 8.963 58H49.037C50.28 58 51.5 57.009 51.5 56V41H6.5ZM27.021 51.566C27.021 52.04 26.934 52.439 26.761 52.762C26.587 53.085 26.355 53.345 26.064 53.541C25.772 53.737 25.437 53.874 25.059 53.951C24.681 54.028 24.29 54.067 23.89 54.067C23.689 54.067 23.454 54.046 23.186 54.005C22.918 53.964 22.639 53.901 22.352 53.814C22.065 53.727 21.789 53.629 21.525 53.52C21.26 53.411 21.037 53.288 20.855 53.151L21.552 52.044C21.643 52.107 21.773 52.174 21.942 52.242C22.111 52.31 22.295 52.374 22.496 52.433C22.696 52.493 22.906 52.544 23.125 52.59C23.344 52.636 23.549 52.658 23.74 52.658C24.222 52.658 24.608 52.564 24.895 52.378C25.182 52.192 25.334 51.874 25.353 51.428V43.717H27.021V51.566V51.566ZM34.958 52.298C34.808 52.64 34.596 52.941 34.322 53.2C34.048 53.459 33.711 53.667 33.31 53.822C32.909 53.977 32.453 54.054 31.943 54.054C31.724 54.054 31.499 54.042 31.266 54.02C31.033 53.998 30.798 53.958 30.562 53.904C30.325 53.849 30.099 53.774 29.885 53.678C29.671 53.582 29.486 53.466 29.331 53.329L29.618 52.153C29.745 52.226 29.907 52.297 30.103 52.365C30.299 52.433 30.501 52.497 30.711 52.556C30.92 52.616 31.13 52.663 31.34 52.7C31.549 52.736 31.745 52.755 31.928 52.755C32.484 52.755 32.91 52.625 33.206 52.365C33.502 52.105 33.65 51.72 33.65 51.21C33.65 50.9 33.545 50.636 33.336 50.417C33.126 50.198 32.864 50 32.55 49.822C32.236 49.644 31.896 49.467 31.531 49.289C31.166 49.111 30.824 48.901 30.506 48.66C30.187 48.419 29.922 48.134 29.713 47.806C29.503 47.478 29.399 47.068 29.399 46.576C29.399 46.13 29.481 45.733 29.645 45.387C29.809 45.041 30.03 44.746 30.308 44.505C30.586 44.264 30.91 44.079 31.279 43.951C31.648 43.823 32.038 43.76 32.448 43.76C32.867 43.76 33.291 43.799 33.719 43.876C34.147 43.953 34.493 44.079 34.758 44.252C34.703 44.37 34.639 44.5 34.567 44.642C34.494 44.784 34.425 44.915 34.362 45.038C34.298 45.161 34.243 45.264 34.198 45.346C34.152 45.428 34.125 45.474 34.116 45.483C34.061 45.456 34 45.42 33.931 45.374C33.862 45.328 33.764 45.283 33.637 45.237C33.509 45.191 33.34 45.16 33.131 45.141C32.921 45.122 32.652 45.127 32.324 45.155C32.141 45.174 31.969 45.225 31.804 45.312C31.639 45.399 31.493 45.505 31.366 45.633C31.238 45.761 31.137 45.904 31.065 46.064C30.992 46.223 30.956 46.377 30.956 46.522C30.956 46.886 31.06 47.18 31.27 47.404C31.479 47.628 31.739 47.823 32.049 47.992C32.359 48.161 32.695 48.325 33.061 48.484C33.425 48.643 33.765 48.838 34.08 49.065C34.395 49.292 34.656 49.578 34.866 49.919C35.075 50.261 35.18 50.7 35.18 51.238C35.184 51.603 35.108 51.956 34.958 52.298Z" fill="#E6E6E6"/>
<path d="M51.5 39V13.978C51.5 13.212 51.408 12.645 50.95 12.186L39.313 0.55C38.964 0.201 38.48 0 37.985 0H8.963C7.777 0 6.5 0.916 6.5 2.926V39H51.5ZM29.5 32C29.5 32.552 29.053 33 28.5 33C27.947 33 27.5 32.552 27.5 32V29C27.5 28.448 27.947 28 28.5 28C29.053 28 29.5 28.448 29.5 29V32ZM37.5 3.391C37.5 2.933 38.053 2.704 38.377 3.028L48.472 13.123C48.796 13.447 48.567 14 48.109 14H37.5V3.391ZM36.5 23V19C36.5 18.449 36.052 18 35.5 18C34.947 18 34.5 17.552 34.5 17C34.5 16.448 34.947 16 35.5 16C37.154 16 38.5 17.346 38.5 19V23C38.5 24.103 39.397 25 40.5 25C41.053 25 41.5 25.448 41.5 26C41.5 26.552 41.053 27 40.5 27C39.397 27 38.5 27.897 38.5 29V33C38.5 34.654 37.154 36 35.5 36C34.947 36 34.5 35.552 34.5 35C34.5 34.448 34.947 34 35.5 34C36.052 34 36.5 33.551 36.5 33V29C36.5 27.8 37.042 26.734 37.882 26C37.042 25.266 36.5 24.2 36.5 23ZM28.5 21C29.328 21 30 21.672 30 22.5C30 23.328 29.328 24 28.5 24C27.672 24 27 23.328 27 22.5C27 21.672 27.672 21 28.5 21ZM16.5 25C17.603 25 18.5 24.103 18.5 23V19C18.5 17.346 19.846 16 21.5 16C22.053 16 22.5 16.448 22.5 17C22.5 17.552 22.053 18 21.5 18C20.948 18 20.5 18.449 20.5 19V23C20.5 24.2 19.958 25.266 19.118 26C19.958 26.734 20.5 27.8 20.5 29V33C20.5 33.551 20.948 34 21.5 34C22.053 34 22.5 34.448 22.5 35C22.5 35.552 22.053 36 21.5 36C19.846 36 18.5 34.654 18.5 33V29C18.5 27.897 17.603 27 16.5 27C15.947 27 15.5 26.552 15.5 26C15.5 25.448 15.947 25 16.5 25Z" fill="#E6E6E6"/>
</svg>
